!!!!SEGMENT: pl-wn--mus-iii-75-728-cim--004_sowinski-wojciech--la-dernier-slave.krn
!!!cenid: 18xx:3593
!!!COM: Sowiński, Wojciech
!!!COM-rismid: pe30008543
!!!CDT:
!!!CNT:
!!!OTL: La dernier slave
!!!PDT: 1833
!!!AGN:
!!!SMS-siglum: PL-Wn
!!!SMS-shelfmark: Mus.III.75.728 Cim.
!!!SMS-shelfwork: 004 W
!!!SMS-variant:
!!!SMS-altvar:
!!!NIFC-rismid:
!!!URL-scan: https://polona.pl/item/album-lyrique-contenant-dix-romances-chansonnettes-et-mazureck-a-une-ou-plusieurs-voix,NzE0MjM5Nzc/9/#info:metadata
!!!ONB-nifc: UWAGA: kolejne zwrotki wpisane w źródle tylko dla głosu wokalnego przetranskrybować wraz ze skopiowaną partią fortepianu (do ukrycia w humdrumie)
!!!OMD: Andante.
!!!key: B-
**kern	**kern	**dynam	**kern	**text
*part2	*part2	*part2	*part1	*part1
*staff3	*staff2	*	*staff1	*staff1
*I"PIANO.	*I"PIANO.	*	*I"[Voce]	*
*Ipiano	*Ipiano	*	*Ivox	*
*ICklav	*ICklav	*	*ICvox	*
*clefF4	*clefG2	*	*clefG2	*
*k[b-e-]	*k[b-e-]	*	*k[b-e-]	*
*B-:	*B-:	*	*B-:	*
*M6/8	*M6/8	*	*M6/8	*
*>[A,B,C,D,C,E,C,F,C,A]	*>[A,B,C,D,C,E,C,F,C,A]	*	*>[A,B,C,D,C,E,C,F,C,A]	*
=1	=1	=1	=1	=1
*>A	*>A	*	*>A	*
!	!LO:TX:b:t=dolce.	!	!	!
!	!LO:TX:a:B:t=Andante.	!	!	!
(8BB-\L	(4ccc\	.	2.ryy	.
8d\	.	.	.	.
8B-\J	8bb-\	.	.	.
8F\L	4dd\	.	.	.
8d\	.	.	.	.
8B-\J)	8ee-\)	.	.	.
=2	=2	=2	=2	=2
*^	*^	*	*	*
8r	2.F\	(4.ff^^/	2cc\	<	2.ryy	.
(<8a/L	.	.	.	.	.	.
8e-/J	.	.	.	.	.	.
8c/L	.	4gg/	.	.	.	.
8a/	.	.	4ryy	.	.	.
8e-/J)	.	8aa/)	.	[	.	.
*	*	*v	*v	*	*	*
=3	=3	=3	=3	=3	=3
8r	2.G\	4bb-\	.	2.ryy	.
(<8g/L	.	.	.	.	.
8d/J	.	8gg\	sf	.	.
8B-/L	.	4b-\	.	.	.
8g/	.	.	.	.	.
8d/J)	.	8cc\	.	.	.
=4	=4	=4	=4	=4	=4
*	*	*^	*	*	*
8r	2.F#X\	(2.dd/	2.a\	.	2.ryy	.
!LO:SIC:v:s=(>8f#/L	!	!	!	!	!	!
(<8f/L	.	.	.	.	.	.
8d/J	.	.	.	.	.	.
8A/L	.	.	.	.	.	.
!LO:SIC:v:s=8f#/	!	!	!	!	!	!
8f/	.	.	.	.	.	.
8d/J)	.	.	.	.	.	.
*	*	*v	*v	*	*	*
=5	=5	=5	=5	=5	=5
8r	2.E-\	(4ff^\)	.	2.ryy	.
(<8e-/L	.	.	.	.	.
8c/J	.	8ee-\)	sf >	.	.
8G/L	.	4g/	.	.	.
8e-/	.	.	.	.	.
8c/J)	.	8a/	]	.	.
!!LO:LB:g=original
=6	=6	=6	=6	=6	=6
8r	2.F\	(4b-\	.	2.r	.
(<8f/L	.	.	.	.	.
.	.	16qqb-/LL	>	.	.
.	.	16qqcc/JJ	.	.	.
8d/J	.	8b-\	.	.	.
8B-/L	.	4a\	.	.	.
8f/	.	.	.	.	.
8d/J)	.	8b-\	.	.	.
=7	=7	=7	=7	=7	=7
8r	2.F\	4cc\	.	2.r	.
(<8a/L	.	.	.	.	.
.	.	16qqcc/LL	.	.	.
.	.	16qqdd/JJ	.	.	.
8e-/J	.	8cc\	.	.	.
8c/L	.	4b-\	]	.	.
8a/	.	.	.	.	.
8e-/J)	.	8cc\	.	.	.
*v	*v	*	*	*	*
=8	=8	=8	=8	=8
2B-\ 2d	2f^^\) 2b- 2dd	.	2.r	.
!	!LO:TX:a:t=Fin.	!	!	!
4r	4r	.	.	.
=9	=9	=9	=9	=9
*>B	*>B	*	*>B	*
*	*^	*	*	*
2BB-\ 2B-	8r	8ryy	.	4.d/	Où
!	!	!	!LO:DY:b:rj	!	!
.	[4f/	8d\L	p	.	.
.	.	8c#X\J	.	.	.
.	8f/L]	8d\L	.	4.f/	sont
4r	8f/	8d\	.	.	.
.	8f/J	8d\J	.	.	.
=10	=10	=10	=10	=10	=10
2.GG\ 2.G	8r	8ryy	.	[4.b-\	mes
.	4g/	(>8B-\L	sf	.	.
.	.	8A\J)	.	.	.
.	8g/L	8B-\L	.	4b-\]	.
.	8g/	8B-\	.	.	.
.	8g/J	8B-\J	.	8cc\	a-
=11	=11	=11	=11	=11	=11
2.FF\ 2.F	8r	8ryy	.	4.a/	-yeux
.	8f/L	4A\	.	.	.
.	8en/J	.	.	.	.
.	8f/L	8A\L	.	4g/	dont
.	8f/	8A\	.	.	.
.	8f/J	8A\J	.	8f/	l`au-
!!LO:LB:g=original
=12	=12	=12	=12	=12	=12
2BB-\	8r	4.ryy	.	4.d/	-da-
.	8B-/L 8d	.	.	.	.
.	[8F</J	.	.	.	.
.	8f/L	8F<\]	.	(4f/	-ce
4r	8F</	4ryy	.	.	.
.	8e-/J	.	.	8e-/)	.
=13	=13	=13	=13	=13	=13
4.BB-\ 4.B-	8r	8ryy	.	4.d/	long
!	!	!	!LO:DY:b:rj	!	!
.	4f/	8d\L	p	.	.
.	.	8c#X\J	.	.	.
4r	8f/L	8d\L	.	4.f/	temps
.	8f/	8d\	.	.	.
8r	8f/J	8d\J	.	.	.
=14	=14	=14	=14	=14	=14
2GG/ 2G	8r	8ryy	.	[4.b-\	é-
.	4g/	8B-\L	.	.	.
.	.	8A\J	.	.	.
.	8g/L	8B-\L	.	4b-\]	.
4r	8g/	8B-\	.	.	.
.	8g/J	8B-\J	.	8b-\	-ton-
=15	=15	=15	=15	=15	=15
[<4.CC/ [<4.C	8r	8ryy	sf	4.c/	-na
.	4g/	8B-\L	.	.	.
.	.	8c\J	.	.	.
!	!	!	!LO:HP:t=cres.	!	!
4.CC/] 4.C]	8b-/	8b-\L	<	4g/	l`u-
.	4en/	8B-\	.	.	.
.	.	8c\J	.	8a/	-ni-
=16	=16	=16	=16	=16	=16
2FF/ 2F	(<8f/L	[<4.A\	.	2f/	-vers
.	8en/	.	.	.	.
.	8f/J)	.	.	.	.
.	8f/L	8A\L]	.	.	.
4r	8f/	8A\	.	4r	.
.	8f/J	8A\J	.	.	.
=17	=17	=17	=17	=17	=17
*^	*	*	*	*	*
4.F/	2FF\	2.a-X/	(>8f\L	.	4.a-X/	ils
.	.	.	8A-X\	.	.	.
.	.	.	8c\J	mf	.	.
8F/L	.	.	8f\L	.	4a-/	ont
8F/	4ryy	.	8c\	.	.	.
8F/J	.	.	8A-\J)	.	8a-/	pas-
!!LO:LB:g=original
=18	=18	=18	=18	=18	=18	=18
4.D-X/	2.DD-X\	2.b-/	8f\L	.	4.b-\	-sé
.	.	.	(>8B-\	.	.	.
.	.	.	8d-X\J	.	.	.
4D-/	.	.	8f\L	.	4b-\	com-
.	.	.	8d-\	.	.	.
8D-/	.	.	8B-\J)	.	8b-\	-me
*v	*v	*	*	*	*	*
=19	=19	=19	=19	=19	=19
4.EE-/ 4.E-	4cc/	8a-X\L	.	4.cc\	tout
.	.	8c\	.	.	.
.	8ryy	8e-\J	.	.	.
4.EE-/ 4.E-	4b-/	8g\L	.	4.b-\	pas-
.	.	8d-X\	.	.	.
!	!	!	!LO:HP:t=decres&colon;	!	!
.	8ryy	8e-\J	>	.	.
*	*v	*v	*	*	*
=20	=20	=20	=20	=20
[<4.AAA-X/ [<4.AA-X	8r	.	[4.a-X/	-se
.	(8c/L	.	.	.
.	8a-X/J	.	.	.
4AAA-/] 4AA-]	8e-/L	.	4a-/]	.
.	8c/	.	.	.
!	!LO:SIC:v:s=8A-/J)	!	!	!
8r	8A/J)	.	8a-/	là-
=21	=21	=21	=21	=21
8AAn\L	2c/ 2e- 2f	sf	4.f/	-bas
8F\	.	.	.	.
8F\J	.	.	.	.
8F\L	.	.	4r	.
8F\	4c/ 4e- 4f	.	.	.
8F\J	.	.	8f/	au
=22	=22	=22	=22	=22
*^	*	*	*	*
!	!	!	!LO:HP:t=cres_ _ _:ext=ud	!	!
8r	4.BB-\	4.B-/ 4.d 4.f	<	4f/	fond
8F/L	.	.	.	.	.
8F/J	.	.	.	8f/	de
8r	4.AA-X\	4.B-/ 4.dn 4.f	.	4f/	ces
8F/L	.	.	.	.	.
8F/J	.	.	.	8f/	dé-
=23	=23	=23	=23	=23	=23
8r	4.GG-X\	4.B-/ 4.e- 4.b-	sf	[4.b-\	-serts
8E-/L	.	.	.	.	.
8E-/J	.	.	.	.	.
8r	4.GGn\	4d-X/ 4en 4b-	.	4b-\]	.
8En/L	.	.	.	.	.
8E/J	.	8d-/ 8e 8b-	.	8b-\	au
!!LO:PB:g=original
=24	=24	=24	=24	=24	=24
*	*	*^	*	*	*
8AA-X/L	4.AA-\	4.d-X/ 4.f 4.a-X	4.ryy	.	4a-X/	fond
8A-X/	.	.	.	.	.	.
8A-/J	.	.	.	.	8a-/	de
!	!	!	!	!LO:HP:a:t=dim&colon;	!	!
8AA-/L	4.AA-\	4.c/ 4.a-	4.G\	>	4c/	ces
8E-/	.	.	.	.	.	.
8E-/J	.	.	.	.	8c/	dé-
*v	*v	*	*	*	*	*
*	*v	*v	*	*	*
=25	=25	=25	=25	=25
8DD-X\L	2F</ 2d-X 2f	.	2d-X/	-serts
(8D-X\	.	.	.	.
8AA-X\J	.	.	.	.
8FF\L	.	.	.	.
8AA-\	4r	.	4r	.
8FF\J)	.	.	.	.
=26	=26	=26	=26	=26
*	*^	*	*	*
!	!	!	!LO:DY:a	!LO:TX:a:t=[segno]	!
2.FF/ 2.F	2.f/	8A\L	p <	2.r	.
.	.	(>8B-\	.	.	.
.	.	8Bn\J	.	.	.
.	.	8c\L	.	.	.
.	.	8dn\	.	.	.
.	.	8c\J)	[	.	.
=27	=27	=27	=27	=27	=27
*>C	*>C	*>C	*	*>C	*
*^	*	*	*	*	*
!	!	!	!	!LO:DY:b=2:t=sempre piano.	!LO:TX:a:t=Meno Andᵗᵉ.	!
8r	2BB-\	(4.f/	[2.d\	p	4.f/	De
(<8D/L	.	.	.	.	.	.
8F/	.	.	.	.	.	.
8B-/	.	4.g/	.	.	4.g/	ma
8F/	4ryy	.	.	.	.	.
8D/J)	.	.	.	.	.	.
=28	=28	=28	=28	=28	=28	=28
8r	2BB-\	4.f/	4.d\]	.	4.f/	dou-
(<8D/L	.	.	.	.	.	.
8F/	.	.	.	.	.	.
8B-/	.	4b-/	4d\	.	4b-\	-leur
8F/	4ryy	.	.	.	.	.
8D/J)	.	8b-/	8d\	.	8b-\	pro-
=29	=29	=29	=29	=29	=29	=29
8r	2BB-\	(>2.b-/	[2.c\	rf	2b-\	-fon-
(<8E-/L	.	.	.	.	.	.
8G-X/	.	.	.	.	.	.
8B-/	.	.	.	.	.	.
8G-/	4ryy	.	.	.	4ryy	.
8E-/J)	.	.	.	.	.	.
!!LO:LB:g=original
=30	=30	=30	=30	=30	=30	=30
!LO:N:vis=2	!	!	!	!	!	!
8BB-/L	2BB-\	2a/)	2c\]	>	2an/	-de
8E-/	.	.	.	.	.	.
8F/	.	.	.	.	.	.
8c/	.	.	.	.	.	.
8F/	4ryy	8.f/L	8.f\L	]	4r	.
8E-/J	.	.	.	.	.	.
.	.	16f/Jk)	16f\Jk	.	.	.
=31	=31	=31	=31	=31	=31	=31
!LO:N:vis=2	!	!	!	!LO:DY:b:rj	!	!
8C/L	2C\	(4.f/	[2.d\	p	4.f/	rien
8D/	.	.	.	.	.	.
8F/	.	.	.	.	.	.
8B-/	.	4.g/	.	.	4.g/	ne
8F/	4ryy	.	.	.	.	.
8D/J	.	.	.	.	.	.
=32	=32	=32	=32	=32	=32	=32
!LO:N:vis=2	!	!	!	!	!	!
8C/L	2C\	4.f/	4.d\]	.	4.f/	peut
8D/	.	.	.	.	.	.
8F/	.	.	.	.	.	.
8B-/	.	4r	4.ryy	.	4a\	me
8F/	4ryy	.	.	.	.	.
8D/J	.	8r	.	.	8b-\	gué-
*	*	*v	*v	*	*	*
=33	=33	=33	=33	=33	=33
!LO:N:vis=2	!	!	!LO:DY:b=2:rj	!	!
8BB-/L	2BB-\	[<2.en/) [<2.g [<2.cc	sfz	[2.cc\	-rir
8En/	.	.	.	.	.
8G/	.	.	.	.	.
8c/	.	.	.	.	.
8G/	4ryy	.	.	.	.
8E/J	.	.	.	.	.
=34	=34	=34	=34	=34	=34
!LO:N:vis=2	!	!	!LO:DY:b=2:rj	!	!
8BB-/L	2BB-\	4.enX/] 4.g] 4.cc]	sfz >	4.cc\]	.
8En/	.	.	.	.	.
8G/	.	.	.	.	.
8c/	.	4e/ 4g 4cc	.	4cc\	ah
8G/	4ryy	.	.	.	.
8E/J	.	8e/ 8g 8cc	]]	8cc\	pour
=35	=35	=35	=35	=35	=35
*	*	*^	*	*	*
!LO:N:vis=2	!	!	!	!	!	!
8E-X/L	2E-X\	(4.cc/	2.f\	sf	4cc\	un
8F/	.	.	.	.	.	.
8A/J	.	.	.	.	8bn\	meil-
8c/L	.	8bn/L	.	.	(4cc\	-leur
8A/	4ryy	8cc/	.	.	.	.
8F/J	.	8dd/J)	.	.	8dd\)	.
!!LO:LB:g=original
=36	=36	=36	=36	=36	=36	=36
!LO:N:vis=2	!	!	!	!	!	!
8E-X/L	2E-X\	4.cc/	2.f\	.	(4.cc\	monde
8F/	.	.	.	.	.	.
8A/J	.	.	.	.	.	.
8c/L	.	4a/	.	.	4a\	il
8A/	4ryy	.	.	.	.	.
8F/J	.	8f/	.	.	8f/)	est
*v	*v	*	*	*	*	*
=37	=37	=37	=37	=37	=37
4.DD/ 4.D	8r	8ryy	.	4.ff\	temps
!	!	!	!LO:DY:b:rj	!	!
.	8f/L	8B-\L	sf	.	.
.	8f/J	8B-\J	.	.	.
4.DD/ 4.D	8r	8ryy	.	4f/	de
.	8f/L	8B-\L	.	.	.
.	8f#X/J	8B-\J	.	8f#X/	par-
*	*v	*v	*	*	*
=38	=38	=38	=38	=38
2.EE-/ 2.E-	8r	.	4.g/	-tir
!	!LO:TX:b:t=dolce.	!	!	!
.	(8B-/L	.	.	.
.	8e-/	.	.	.
.	8g/	.	4g/	il
.	8e-/	.	.	.
!	!	!	!LO:TX:a:t=piu lento.	!
.	8B-/J)	.	8g/	est
=39	=39	=39	=39	=39
!LO:TX:a:t=rallent.	!	!	!	!
4.F\	8r	.	4.a\	temps
.	8c/L 8e- 8f 8a	.	.	.
.	8c/J 8e- 8f 8a	.	.	.
4.FF/	4.c/ 4.e- 4.f 4.a	.	4b-\	de
.	.	.	8cc\	par-
=40	=40	=40	=40	=40
*^	*	*	*	*
8r	2.BB-\	2d/ 2f 2b-	.	2b-\	-tir
(<8F/L	.	.	.	.	.
8En/J	.	.	.	.	.
8F/L	.	.	.	.	.
!	!	!LO:TX:a:t=[segno]	!	!	!
!	!	!LO:TX:a:t=D.C. al Fine.	!	!LO:TX:a:t=[segno]	!
8G/	.	4r	.	4r	.
8A/J)	.	.	.	.	.
*v	*v	*	*	*	*
!!LO:LB:g=original
=41||	=41||	=41||	=41||	=41||
*>D	*>D	*	*>D	*
*	*	*	*k[b-e-]	*
*	*	*	*M6/8	*
*	*^	*	*	*
!	!	!	!	!LO:TX:a:t=2ᵐᵉ. COUPLET.:rj	!
2BB-\yy 2B-yy	8ryy	8ryy	.	4.d/	Où
!	!	!	!LO:DY:b:rj	!	!
.	[4f/yy	8d\Lyy	py	.	.
.	.	8c#X\Jyy	.	.	.
.	8f/L]yy	8d\Lyy	.	4.f/	sont
4ryy	8f/yy	8d\yy	.	.	.
.	8f/Jyy	8d\Jyy	.	.	.
=42	=42	=42	=42	=42	=42
2.GG\yy 2.Gyy	8ryy	8ryy	.	[4.b-\	mes
!	!	!	!LO:DY:b:rj	!	!
.	4g/yy	(>8B-\Lyy	sfy	.	.
.	.	8A\J)yy	.	.	.
.	8g/Lyy	8B-\Lyy	.	4b-\]	.
.	8g/yy	8B-\yy	.	.	.
.	8g/Jyy	8B-\Jyy	.	8cc\	fo-
=43	=43	=43	=43	=43	=43
2.FF\yy 2.Fyy	8ryy	8ryy	.	4.a/	-lâ-
.	8f/Lyy	4A\yy	.	.	.
.	8en/Jyy	.	.	.	.
.	8f/Lyy	8A\Lyy	.	4g/	-tres
.	8f/yy	8A\yy	.	.	.
.	8f/Jyy	8A\Jyy	.	8f/	com-
=44	=44	=44	=44	=44	=44
2BB-\yy	8ryy	4.ryy	.	4.d/	-pa-
.	8B-/L 8dyy	.	.	.	.
.	[8F</Jyy	.	.	.	.
.	8f/Lyy	8F<\]yy	.	(4f/	-gnes
4ryy	8F</yy	4ryy	.	.	.
.	8e-/Jyy	.	.	8e-/)	.
=45	=45	=45	=45	=45	=45
4.BB-\yy 4.B-yy	8ryy	8ryy	.	4.d/	le
!	!	!	!LO:DY:b:rj	!	!
.	4f/yy	8d\Lyy	py	.	.
.	.	8c#X\Jyy	.	.	.
4ryy	8f/Lyy	8d\Lyy	.	4.f/	Lys
.	8f/yy	8d\yy	.	.	.
8ryy	8f/Jyy	8d\Jyy	.	.	.
=46	=46	=46	=46	=46	=46
2GG/yy 2Gyy	8ryy	8ryy	.	4.b-/	en-
.	4g/yy	8B-\Lyy	.	.	.
.	.	8A\Jyy	.	.	.
.	8g/Lyy	8B-\Lyy	.	4.b-/	-viait
4ryy	8g/yy	8B-\yy	.	.	.
.	8g/Jyy	8B-\Jyy	.	.	.
=47	=47	=47	=47	=47	=47
[<4.CC/yy [<4.Cyy	8ryy	8ryy	sfy	(4.c/	leur
.	4g/yy	8B-\Lyy	.	.	.
.	.	8c\Jyy	.	.	.
!	!	!	!LO:HP:t=cres.	!	!
4.CC/]yy 4.C]yy	8b-/yy	8b-\Lyy	<	4g/	.
.	4en/yy	8B-\yy	.	.	.
.	.	8c\Jyy	.	8a/)	des-
=48	=48	=48	=48	=48	=48
2FF/yy 2Fyy	(<8f/Lyy	[<4.A\yy	.	2f/	-tin
.	8en/yy	.	.	.	.
.	8f/J)yy	.	.	.	.
.	8f/Lyy	8A\L]yy	.	.	.
4ryy	8f/yy	8A\yy	.	4r	.
.	8f/Jyy	8A\Jyy	.	.	.
=49	=49	=49	=49	=49-	=49
*^	*	*	*	*	*
4.F/yy	2FF\yy	2.a-X/yy	(>8f\Lyy	.	4.a-X/	et
.	.	.	8A-X\yy	.	.	.
.	.	.	8c\Jyy	mfy	.	.
8F/Lyy	.	.	8f\Lyy	.	4a-/	com-
8F/yy	4ryy	.	8c\yy	.	.	.
8F/Jyy	.	.	8A-\J)yy	.	8a-/	-me
!	!	!	!	!	!LO:LB:g=original	!
=50	=50	=50	=50	=50	=50	=50
4.D-X/yy	2.DD-X\yy	2.b-/yy	8f\Lyy	.	[4.b-\	lui
.	.	.	(>8B-\yy	.	.	.
.	.	.	8d-X\Jyy	.	.	.
4D-/yy	.	.	8f\Lyy	.	4b-\]	.
.	.	.	8d-\yy	.	.	.
8D-/yy	.	.	8B-\J)yy	.	8b-\	sur
*v	*v	*	*	*	*	*
=51	=51	=51	=51	=51	=51
4.EE-/yy 4.E-yy	4cc/yy	8a-X\Lyy	.	4.cc\	ces
.	.	8c\yy	.	.	.
.	8ryy	8e-\Jyy	.	.	.
4.EE-/yy 4.E-yy	4b-/yy	8g\Lyy	.	4.b-\	mon-
.	.	8d-X\yy	.	.	.
!	!	!	!LO:HP:t=decres&colon;	!	!
.	8ryy	8e-\Jyy	>	.	.
*	*v	*v	*	*	*
=52	=52	=52	=52	=52
[<4.AAA-X/yyy [<4.AA-Xyy	8ryy	.	4.a-X/	-ta-
.	(8c/Lyy	.	.	.
.	8a-X/Jyy	.	.	.
4AAA-/]yy 4AA-]yy	8e-/Lyy	.	4a-/	-gnes
.	8c/yy	.	.	.
!	!LO:SIC:v:s=8A-/J)yy	!	!	!
8ryy	8A/J)yy	.	8r	.
=53	=53	=53	=53	=53
8AAn\Lyy	2c/yy 2e-yy 2fyy	sfy	4f/	el-
8F\yy	.	.	.	.
8F\Jyy	.	.	8f/	-les
8F\Lyy	.	.	4f/	n`ont
8F\yy	4c/yy 4e-yy 4fyy	.	.	.
8F\Jyy	.	.	8f/	bril-
=54	=54	=54	=54	=54
*^	*	*	*	*
!	!	!	!LO:HP:t=cres_ _ _:ext=ud	!	!
8ryy	4.BB-\yy	4.B-/yy 4.dyy 4.fyy	<	4.f/	-lé
8F/Lyy	.	.	.	.	.
8F/Jyy	.	.	.	.	.
8ryy	4.AA-X\yy	4.B-/yy 4.dnyy 4.fyy	.	4f/	qu`un
8F/Lyy	.	.	.	.	.
8F/Jyy	.	.	.	8f/	ma-
=55	=55	=55	=55	=55	=55
8ryy	4.GG-X\yy	4.B-/yy 4.e-yy 4.b-yy	sfy	[4.b-\	-tin
8E-/Lyy	.	.	.	.	.
8E-/Jyy	.	.	.	.	.
8ryy	4.GGn\yy	4d-X/yy 4enyy 4b-yy	.	4b-\]	.
8En/Lyy	.	.	.	.	.
8E/Jyy	.	8d-/yy 8eyy 8b-yy	.	8b-\	bril-
=56	=56	=56	=56	=56	=56
*	*	*^	*	*	*
8AA-X/Lyy	4.AA-\yy	4.d-X/yy 4.fyy 4.a-Xyy	4.ryy	.	4a-X/	-lé
8A-X/yy	.	.	.	.	.	.
8A-/Jyy	.	.	.	.	8a-/	qu`un
!	!	!	!	!LO:HP:a:t=dim&colon;	!	!
8AA-/Lyy	4.AA-\yy	4.c/yy 4.a-yy	4.G\yy	>	4c/	seul
8E-/yy	.	.	.	.	.	.
8E-/Jyy	.	.	.	.	8c/	ma-
*v	*v	*	*	*	*	*
*	*v	*v	*	*	*
=57	=57	=57	=57	=57
8DD-X\Lyy	2F</yy 2d-Xyy 2fyy	.	2d-X/	-tin
(8D-X\yy	.	.	.	.
8AA-X\Jyy	.	.	.	.
8FF\Lyy	.	.	.	.
8AA-\yy	4ryy	.	4r	.
8FF\J)yy	.	.	.	.
=58	=58	=58	=58	=58
*	*^	*	*	*
!	!	!	!	!LO:TX:a:t=[segno]	!
!	!	!	!LO:DY:a	!LO:TX:a:t=1.	!
2.FF/yy 2.Fyy	2.f/yy	8A\Lyy	py <	2.r	.
.	.	(>8B-\yy	.	.	.
.	.	8Bn\Jyy	.	.	.
.	.	8c\Lyy	.	.	.
.	.	8dn\yy	.	.	.
.	.	8c\J)yy	[	.	.
!	!	!	!	!LO:LB:g=original	!
=59||	=59||	=59||	=59||	=59||	=59||
*>E	*>E	*>E	*	*>E	*
*	*	*	*	*k[b-e-]	*
*	*	*	*	*M6/8	*
!	!	!	!	!LO:TX:a:t=3ᵐᵉ. COUPLET.:rj	!
2BB-\yy 2B-yy	8ryy	8ryy	.	4.d/	Où
!	!	!	!LO:DY:b:rj	!	!
.	[4f/yy	8d\Lyy	py	.	.
.	.	8c#X\Jyy	.	.	.
.	8f/L]yy	8d\Lyy	.	4.f/	sont
4ryy	8f/yy	8d\yy	.	.	.
.	8f/Jyy	8d\Jyy	.	.	.
=60	=60	=60	=60	=60	=60
2.GG\yy 2.Gyy	8ryy	8ryy	.	[4.b-\	les
!	!	!	!LO:DY:b:rj	!	!
.	4g/yy	(>8B-\Lyy	sfy	.	.
.	.	8A\J)yy	.	.	.
.	8g/Lyy	8B-\Lyy	.	4b-\]	.
.	8g/yy	8B-\yy	.	.	.
.	8g/Jyy	8B-\Jyy	.	8cc\	en-
=61	=61	=61	=61	=61	=61
2.FF\yy 2.Fyy	8ryy	8ryy	.	4.a/	-fants
.	8f/Lyy	4A\yy	.	.	.
.	8en/Jyy	.	.	.	.
.	8f/Lyy	8A\Lyy	.	4g/	de
.	8f/yy	8A\yy	.	.	.
.	8f/Jyy	8A\Jyy	.	8f/	ma
=62	=62	=62	=62	=62	=62
2BB-\yy	8ryy	4.ryy	.	(4.d/	ra-
.	8B-/L 8dyy	.	.	.	.
.	[8F</Jyy	.	.	.	.
.	8f/Lyy	8F<\]yy	.	4f/)	.
4ryy	8F</yy	4ryy	.	.	.
.	8e-/Jyy	.	.	8e-/	-ce
=63	=63	=63	=63	=63	=63
4.BB-\yy 4.B-yy	8ryy	8ryy	.	4.d/	ils
!	!	!	!LO:DY:b:rj	!	!
.	4f/yy	8d\Lyy	py	.	.
.	.	8c#X\Jyy	.	.	.
4ryy	8f/Lyy	8d\Lyy	.	4.f/	ont
.	8f/yy	8d\yy	.	.	.
8ryy	8f/Jyy	8d\Jyy	.	.	.
=64	=64	=64	=64	=64	=64
2GG/yy 2Gyy	8ryy	8ryy	.	[4.b-\	dis-
.	4g/yy	8B-\Lyy	.	.	.
.	.	8A\Jyy	.	.	.
.	8g/Lyy	8B-\Lyy	.	4b-\]	.
4ryy	8g/yy	8B-\yy	.	.	.
.	8g/Jyy	8B-\Jyy	.	8b-\	-pa-
=65	=65	=65	=65	=65	=65
[<4.CC/yy [<4.Cyy	8ryy	8ryy	sfy	4.c/	-ru
.	4g/yy	8B-\Lyy	.	.	.
.	.	8c\Jyy	.	.	.
!	!	!	!LO:HP:t=cres.	!	!
4.CC/]yy 4.C]yy	8b-/yy	8b-\Lyy	<	4g/	sans
.	4en/yy	8B-\yy	.	.	.
.	.	8c\Jyy	.	8a/	re-
=66	=66	=66	=66	=66	=66
2FF/yy 2Fyy	(<8f/Lyy	[<4.A\yy	.	2f/	-tour
.	8en/yy	.	.	.	.
.	8f/J)yy	.	.	.	.
.	8f/Lyy	8A\L]yy	.	.	.
4ryy	8f/yy	8A\yy	.	4r	.
.	8f/Jyy	8A\Jyy	.	.	.
=67	=67	=67	=67	=67	=67
*^	*	*	*	*	*
4.F/yy	2FF\yy	2.a-X/yy	(>8f\Lyy	.	4r	.
.	.	.	8A-X\yy	.	.	.
.	.	.	8c\Jyy	mfy	8r	.
8F/Lyy	.	.	8f\Lyy	.	4.a-X/	sans
8F/yy	4ryy	.	8c\yy	.	.	.
8F/Jyy	.	.	8A-\J)yy	.	.	.
!	!	!	!	!	!LO:LB:g=original	!
=68	=68	=68	=68	=68	=68	=68
!	!	!	!	!	!LO:TX:t=P:problem:tekst dopisany	!
4.D-X/yy	2.DD-X\yy	2.b-/yy	8f\Lyy	.	[4.b-\	mê-
.	.	.	(>8B-\yy	.	.	.
.	.	.	8d-X\Jyy	.	.	.
4D-/yy	.	.	8f\Lyy	.	4b-\]	-me
.	.	.	8d-\yy	.	.	.
8D-/yy	.	.	8B-\J)yy	.	8b-\	lais-
*v	*v	*	*	*	*	*
=69	=69	=69	=69	=69	=69
4.EE-/yy 4.E-yy	4cc/yy	8a-X\Lyy	.	4.cc\	-ser
.	.	8c\yy	.	.	.
.	8ryy	8e-\Jyy	.	.	.
4.EE-/yy 4.E-yy	4b-/yy	8g\Lyy	.	4b-\	u-
.	.	8d-X\yy	.	.	.
!	!	!	!LO:HP:t=decres&colon;	!	!
.	8ryy	8e-\Jyy	>	8b-\	-ne
*	*v	*v	*	*	*
=70	=70	=70	=70	=70
[<4.AAA-X/yy [<4.AA-Xyy	8ryy	.	4.a-X/	tra-
.	(8c/Lyy	.	.	.
.	8a-X/Jyy	.	.	.
4AAA-/]yy 4AA-]yy	8e-/Lyy	.	4a-/	-ce
.	8c/yy	.	.	.
!	!LO:SIC:v:s=8A-/J)yy	!	!	!
8ryy	8A/J)yy	.	8r	.
=71	=71	=71	=71	=71
8AAn\Lyy	2c/yy 2e-yy 2fyy	sfy	4f/	qui
8F\yy	.	.	.	.
8F\Jyy	.	.	8f/	rap-
8F\Lyy	.	.	4f/	-pelle
8F\yy	4c/yy 4e-yy 4fyy	.	.	.
8F\Jyy	.	.	8f/	i-
=72	=72	=72	=72	=72
*^	*	*	*	*
!	!	!	!LO:HP:t=cres_ _ _:ext=ud	!	!
8ryy	4.BB-\yy	4.B-/yy 4.dyy 4.fyy	<	4.f/	-ci
8F/Lyy	.	.	.	.	.
8F/Jyy	.	.	.	.	.
8ryy	4.AA-X\yy	4.B-/yy 4.dnyy 4.fyy	.	4f/	leur
8F/Lyy	.	.	.	.	.
8F/Jyy	.	.	.	8f/	sé
=73	=73	=73	=73	=73	=73
8ryy	4.GG-X\yy	4.B-/yy 4.e-yy 4.b-yy	sfy	4b-\	jour
8E-/Lyy	.	.	.	.	.
8E-/Jyy	.	.	.	8b-\	rien
8ryy	4.GGn\yy	4d-X/yy 4enyy 4b-yy	.	4b-\	ne
8En/Lyy	.	.	.	.	.
8E/Jyy	.	8d-/yy 8eyy 8b-yy	.	8b-\	rap-
=74	=74	=74	=74	=74	=74
*	*	*^	*	*	*
8AA-X/Lyy	4.AA-\yy	4.d-X/yy 4.fyy 4.a-Xyy	4.ryy	.	4a-X/	-pel-
8A-X/yy	.	.	.	.	.	.
8A-/Jyy	.	.	.	.	8a-/	-le
!	!	!	!	!LO:HP:a:t=dim&colon;	!	!
8AA-/Lyy	4.AA-\yy	4.c/yy 4.a-yy	4.G\yy	>	4c/	leur
8E-/yy	.	.	.	.	.	.
8E-/Jyy	.	.	.	.	8c/	sé-
*v	*v	*	*	*	*	*
*	*v	*v	*	*	*
=75	=75	=75	=75	=75
8DD-X\Lyy	2F</ 2d-X 2fyy	.	2d-X/	-jour
(8D-X\yy	.	.	.	.
8AA-X\Jyy	.	.	.	.
8FF\Lyy	.	.	.	.
8AA-\yy	4ryy	.	4r	.
8FF\J)yy	.	.	.	.
=76	=76	=76	=76	=76
*	*^	*	*	*
!	!	!	!	!LO:TX:a:t=[segno]	!
!	!	!	!LO:DY:a	!LO:TX:a:t=1	!
2.FF/yy 2.Fyy	2.f/yy	8A\Lyy	py <	2.r	.
.	.	(>8B-\yy	.	.	.
.	.	8Bn\Jyy	.	.	.
.	.	8c\Lyy	.	.	.
.	.	8dn\yy	.	.	.
.	.	8c\J)yy	[	.	.
!	!	!	!	!LO:LB:g=original	!
=77||	=77||	=77||	=77||	=77||	=77||
*>F	*>F	*>F	*	*>F	*
*	*	*	*	*k[b-e-]	*
*	*	*	*	*M6/8	*
!	!	!	!	!LO:TX:a:t=4ᵐᵉ. COUPLET.:rj	!
2BB-\yy 2B-yy	8ryy	8ryy	.	4.d/	Bien-
!	!	!	!LO:DY:b:rj	!	!
.	[4f/yy	8d\Lyy	py	.	.
.	.	8c#X\Jyy	.	.	.
.	8f/L]yy	8d\Lyy	.	4.f/	-tôt
4ryy	8f/yy	8d\yy	.	.	.
.	8f/Jyy	8d\Jyy	.	.	.
=78	=78	=78	=78	=78	=78
2.GG\yy 2.Gyy	8ryy	8ryy	.	[4.b-\	nous
!	!	!	!LO:DY:b:rj	!	!
.	4g/yy	(>8B-\Lyy	sfy	.	.
.	.	8A\J)yy	.	.	.
.	8g/Lyy	8B-\Lyy	.	4b-\]	.
.	8g/yy	8B-\yy	.	.	.
.	8g/Jyy	8B-\Jyy	.	8cc\	se-
=79	=79	=79	=79	=79	=79
2.FF\yy 2.Fyy	8ryy	8ryy	.	4.a/	-rons
.	8f/Lyy	4A\yy	.	.	.
.	8en/Jyy	.	.	.	.
.	8f/Lyy	8A\Lyy	.	4g/	tous
.	8f/yy	8A\yy	.	.	.
.	8f/Jyy	8A\Jyy	.	8f/	en-
=80	=80	=80	=80	=80	=80
2BB-\yy	8ryy	4.ryy	.	4.d/	-sem-
.	8B-/L 8dyy	.	.	.	.
.	[8F</Jyy	.	.	.	.
.	8f/Lyy	8F<\]yy	.	(4f/	-ble
4ryy	8F</yy	4ryy	.	.	.
.	8e-/Jyy	.	.	8e-/)	.
=81	=81	=81	=81	=81	=81
4.BB-\yy 4.B-yy	8ryy	8ryy	.	4.d/	je
!	!	!	!LO:DY:b:rj	!	!
.	4f/yy	8d\Lyy	py	.	.
.	.	8c#X\Jyy	.	.	.
4ryy	8f/Lyy	8d\Lyy	.	4.f/	m`en
.	8f/yy	8d\yy	.	.	.
8ryy	8f/Jyy	8d\Jyy	.	.	.
=82	=82	=82	=82	=82	=82
2GG/yy 2Gyy	8ryy	8ryy	.	[4.b-\	vais
.	4g/yy	8B-\Lyy	.	.	.
.	.	8A\Jyy	.	.	.
.	8g/Lyy	8B-\Lyy	.	4b-\]	.
4ryy	8g/yy	8B-\yy	.	.	.
.	8g/Jyy	8B-\Jyy	.	8b-\	des-
=83	=83	=83	=83	=83	=83
[<4.CC/yy [<4.Cyy	8ryy	8ryy	sfy	4.c/	-cendre
.	4g/yy	8B-\Lyy	.	.	.
.	.	8c\Jyy	.	.	.
!	!	!	!LO:HP:t=cres.	!	!
4.CC/]yy 4.C]yy	8b-/yy	8b-\Lyy	<	4g/	un
.	4en/yy	8B-\yy	.	.	.
.	.	8c\Jyy	.	8a/	val-
=84	=84	=84	=84	=84	=84
2FF/yy 2Fyy	(<8f/Lyy	[<4.A\yy	.	2f/	-lon
.	8en/yy	.	.	.	.
.	8f/J)yy	.	.	.	.
.	8f/Lyy	8A\L]yy	.	.	.
4ryy	8f/yy	8A\yy	.	4r	.
.	8f/Jyy	8A\Jyy	.	.	.
=85	=85	=85	=85	=85	=85
*^	*	*	*	*	*
4.F/yy	2FF\yy	2.a-X/yy	(>8f\Lyy	.	4.a-X/	co-
.	.	.	8A-X\yy	.	.	.
.	.	.	8c\Jyy	mfy	.	.
8F/Lyy	.	.	8f\Lyy	.	4a-/	-me
8F/yy	4ryy	.	8c\yy	.	.	.
8F/Jyy	.	.	8A-\J)yy	.	8a-/	la
!	!	!	!	!	!LO:LB:g=original	!
=86	=86	=86	=86	=86	=86	=86
4.D-X/yy	2.DD-X\yy	2.b-/yy	8f\Lyy	.	4.b-\	feuil-
.	.	.	(>8B-\yy	.	.	.
.	.	.	8d-X\Jyy	.	.	.
4D-/yy	.	.	8f\Lyy	.	4b-\	-le
.	.	.	8d-\yy	.	.	.
8D-/yy	.	.	8B-\J)yy	.	8b-\	du
*v	*v	*	*	*	*	*
=87	=87	=87	=87	=87	=87
4.EE-/yy 4.E-yy	4cc/yy	8a-X\Lyy	.	4.cc\	vieux
.	.	8c\yy	.	.	.
.	8ryy	8e-\Jyy	.	.	.
4.EE-/yy 4.E-yy	4b-/yy	8g\Lyy	.	4.b-\	Trem-
.	.	8d-X\yy	.	.	.
!	!	!	!LO:HP:t=decres&colon;	!	!
.	8ryy	8e-\Jyy	>	.	.
*	*v	*v	*	*	*
=88	=88	=88	=88	=88
[<4.AAA-X/yy [<4.AA-Xyy	8ryy	.	2a-X/	-ble
.	(8c/Lyy	.	.	.
.	8a-X/Jyy	.	.	.
4AAA-/]yy 4AA-]yy	8e-/Lyy	.	.	.
.	8c/yy	.	4r	.
!	!LO:SIC:v:s=8A-/J)yy	!	!	!
8ryy	8A/J)yy	.	.	.
=89	=89	=89	=89	=89
8AAn\Lyy	2c/yy 2e-yy 2fyy	sfy	4f/	que
8F\yy	.	.	.	.
8F\Jyy	.	.	8f/	roule
8F\Lyy	.	.	4f/	en
8F\yy	4c/yy 4e-yy 4fyy	.	.	.
8F\Jyy	.	.	8f/	pas-
=90	=90	=90	=90	=90
*^	*	*	*	*
!	!	!	!LO:HP:t=cres_ _ _:ext=ud	!	!
8ryy	4.BB-\yy	4.B-/yy 4.dyy 4.fyy	<	4.f/	-sant
8F/Lyy	.	.	.	.	.
8F/Jyy	.	.	.	.	.
8ryy	4.AA-X\yy	4.B-/yy 4.dnyy 4.fyy	.	4f/	l`a-
8F/Lyy	.	.	.	.	.
8F/Jyy	.	.	.	8f/	-qui-
=91	=91	=91	=91	=91	=91
8ryy	4.GG-X\yy	4.B-/yy 4.e-yy 4.b-yy	sfy	[4.b-\	-lon
8E-/Lyy	.	.	.	.	.
8E-/Jyy	.	.	.	.	.
8ryy	4.GGn\yy	4d-X/yy 4enyy 4b-yy	.	4b-\]	.
8En/Lyy	.	.	.	.	.
8E/Jyy	.	8d-/yy 8eyy 8b-yy	.	8b-\	que
=92	=92	=92	=92	=92	=92
*	*	*^	*	*	*
8AA-X/Lyy	4.AA-\yy	4.d-X/yy 4.fyy 4.a-Xyy	4.ryy	.	4a-X/	rou-
8A-X/yy	.	.	.	.	.	.
8A-/Jyy	.	.	.	.	8a-/	-le
!	!	!	!	!LO:HP:a:t=dim&colon;	!	!
8AA-/Lyy	4.AA-\yy	4.c/yy 4.a-yy	4.G\yy	>	4c/	l`a-
8E-/yy	.	.	.	.	.	.
8E-/Jyy	.	.	.	.	8c/	-qui-
*v	*v	*	*	*	*	*
*	*v	*v	*	*	*
=93	=93	=93	=93	=93
8DD-X\Lyy	2F</yy 2d-Xyy 2fyy	.	2d-X/	-lon
(8D-X\yy	.	.	.	.
8AA-X\Jyy	.	.	.	.
8FF\Lyy	.	.	.	.
8AA-\yy	4ryy	.	4r	.
8FF\J)yy	.	.	.	.
=94	=94	=94	=94	=94
*	*^	*	*	*
!	!	!	!LO:DY:a	!LO:TX:a:t=1	!
!	!	!	!	!LO:TX:a:t=[segno]	!
2.FF/yy 2.Fyy	2.f/yy	8A\Lyy	py <	2.r	.
.	.	(>8B-\yy	.	.	.
.	.	8Bn\Jyy	.	.	.
.	.	8c\Lyy	.	.	.
.	.	8dn\yy	.	.	.
.	.	8c\J)yy	[	.	.
!	!	!	!	!LO:PB:g=original	!
*v	*v	*	*	*	*
==	==	==	==	==
*-	*-	*-	*-	*-
!!!system-decoration: s1{(s2,s3)}
!!!RDF**kern: < = below
!!!RDF**kern: > = above
!!!ENC: Filip Voros
!!!END: 2022-02-10
!!!AIN: 1 piano 1 vox
!!!ENC: Marta Chmielewska
!!!END: 2022-02-16
